!!!COM: Palestrina, Giovanni Perluigi da
!!!OPR: Qual e il piu grande'amore
!!!OTL: Benedictus
**kern	**kern	**kern	**kern
*Ibass	*Icalto	*Icant	*Icant
!Bassus	!Altus	!Cantus 2	!Cantus 1
*clefF4	*clefG2	*clefG2	*clefG2
*k[b-]	*k[b-]	*k[b-]	*k[b-]
*F:ion	*F:ion	*F:ion	*F:ion
*M4/2	*M4/2	*M4/2	*M4/2
=1	=1	=1	=1
0c	0r	0r	0r
=2	=2	=2	=2
1B-	0r	1r	0r
1A	.	[1cc	.
=3	=3	=3	=3
2F	0r	1cc]	0r
2A	.	.	.
1G	.	1b-	.
=4	=4	=4	=4
0F	0r	1a	0cc
.	.	2f	.
.	.	2a	.
=5	=5	=5	=5
1G	1r	1g	1b-
2.D	[1f	2f	1a
.	.	4a	.
4E	.	4g	.
=6	=6	=6	=6
1F	1f]	4a	2f
.	.	4b-	.
.	.	2.cc	2a
1C	1e	.	1g
.	.	4b-	.
.	.	2g	.
=7	=7	=7	=7
0r	1d	4a	2f
.	.	4g	.
.	.	4f	2a
.	.	4e	.
.	2B-	4d	2b-
.	.	4e	.
.	2d	[2f	4a
.	.	.	8g
.	.	.	8f
=8	=8	=8	=8
1r	1c	2f]	1g
.	.	2e	.
[1F	1c	[1a	2f
.	.	.	[2f
=9	=9	=9	=9
1F]	2r	2a]	4f]
.	.	.	4e
.	2.c	4g	4c
.	.	4f	4d
1E	.	1g	4e
.	4B-	.	4f
.	2G	.	4g
.	.	.	4e
=10	=10	=10	=10
1D	2A	0r	1f
.	2.B-	.	.
2BB-	.	.	2d
.	4A	.	.
2D	2F	.	[2f
=11	=11	=11	=11
1C	2G	0r	4f]
.	.	.	4e
.	2A	.	2e
2BB-	1B-	.	1d
[2B-	.	.	.
=12	=12	=12	=12
2B-]	0F	0cc	2r
4A	.	.	2.f
4G	.	.	.
1A	.	.	.
.	.	.	4e
.	.	.	2c
=13	=13	=13	=13
1G	0r	1b-	2d
.	.	.	2e
1F	.	[1a	1f
=14	=14	=14	=14
2D	0f	2a]	1r
2D	.	2f	.
1F	.	1a	[1cc
=15	=15	=15	=15
4C	1e	0g	1cc]
4D	.	.	.
4E	.	.	.
4F	.	.	.
1G	2d	.	1b-
.	2B-	.	.
=16	=16	=16	=16
1D	2d	2.f	1a
.	1d	.	.
.	.	4g	.
1F	.	4a	2f
.	.	4g	.
.	[2c	4f	2a
.	.	4e	.
=17	=17	=17	=17
1G	2c]	1d	1g
.	2B	.	.
2r	1c	2r	[1g
2c	.	2e	.
=18	=18	=18	=18
2c	2r	2e	1g]
2c	2g	2e	.
1B-	2g	1d	1r
.	2g	.	.
=19	=19	=19	=19
1.A	2f	1c	2r
.	4e	.	2cc
.	4d	.	.
.	2e	1r	2cc
4G	[2f	.	2cc
4F	.	.	.
=20	=20	=20	=20
2G	2f]	1r	1.b-
2G	2e	.	.
[1F	1f	1cc	.
.	.	.	4a
.	.	.	4g
=21	=21	=21	=21
1F]	2r	2cc	1a
.	2f	2cc	.
1r	1d	2b-	1dd
.	.	4a	.
.	.	4g	.
=22	=22	=22	=22
0r	2f	2a	2cc
.	1B-	1dd	4b-
.	.	.	4a
.	.	.	4f
.	.	.	4g
.	2A	2cc	2a
=23	=23	=23	=23
0r	2B-	4b-	4g
.	.	4a	4f
.	2d	4g	1f
.	.	4f	.
.	1c	1g	.
.	.	.	2e
=24	=24	=24	=24
2r	1F	0a	2f
2D	.	.	2f
2D	2r	.	2f
2D	2A	.	2f
=25	=25	=25	=25
1C	2A	1r	2.e
.	2A	.	.
.	.	.	8d
.	.	.	8c
2.BB-	2.B-	2r	2d
.	.	2dd	2b-
4AA	4c	.	.
=26	=26	=26	=26
4BB-	4d	2dd	2b-
4C	4e	.	.
4D	1f	2dd	2b-
4E	.	.	.
[1F	.	2.cc	2.a
.	4e	.	.
.	4d	4b-	4g
=27	=27	=27	=27
2F]	0c	2a	2f
2E	.	2g	2g
2F	.	2f	4a
.	.	.	4b-
2A	.	2e	[2cc
=28	=28	=28	=28
1G	2.d	2.g	2cc]
.	.	.	2b
.	4d	4f	.
2r	1c	[1e	2cc
2A	.	.	2cc
=29	=29	=29	=29
2A	2r	1e]	2cc
2A	2c	.	2cc
1G	2d	1r	2.b-
.	2e	.	.
.	.	.	8a
.	.	.	8g
=30	=30	=30	=30
1F	2f	2r	2.a
.	2A	2cc	.
.	.	.	8g
.	.	.	8f
1r	2A	2cc	2e
.	2A	2cc	[2f
=31	=31	=31	=31
1r	1G	2.b-	2f]
.	.	.	2e
.	.	8a	.
.	.	8g	.
2r	2.F	2a	1f
2D	.	[2f	.
.	4G	.	.
=32	=32	=32	=32
2D	2A	2f]	0r
2D	1B-	4e	.
.	.	4d	.
1C	.	2e	.
.	2A	2e	.
=33	=33	=33	=33
1.BB-	2B-	2.d	2r
.	2B-	.	2dd
.	.	4e	.
.	2B-	1f	2dd
2BB-	2B-	.	2dd
=34	=34	=34	=34
1F	1A	2r	4cc
.	.	.	4b-
.	.	2a	4a
.	.	.	4g
2r	2d	2a	2f
2AA	2c	2a	2e
=35	=35	=35	=35
2BB-	4B-	1f	2d
.	4A	.	.
2D	4G	.	1f
.	4F	.	.
1C	1G	2.cc	.
.	.	.	2e
.	.	4cc	.
=36	=36	=36	=36
2r	2r	2a	0f
2BB-	2B-	2dd	.
2BB-	2B-	2dd	.
2BB-	2B-	2dd	.
=37	=37	=37	=37
1F	1A	4cc	2r
.	.	4b-	.
.	.	4a	2a
.	.	4g	.
2r	2d	2f	2a
2AA	2c	2e	2a
=38	=38	=38	=38
2BB-	2B-	1d	2g
2D	8A	.	1f
.	8G	.	.
.	8A	.	.
.	8B-	.	.
1C	2c	2.g	.
.	2c	.	2e
.	.	4g	.
=39	=39	=39	=39
0F	0c	0a	0f
*-	*-	*-	*-
!! Hosanna
**kern	**kern	**kern	**kern	**kern
*Ibass	*Itenor	*Icalto	*Icant	*Icant
!Bassus	!Tenor	!Altus	!Cantus 2	!Cantus 1
*clefF4	*clefGv2	*clefG2	*clefG2	*clefG2
*k[b-]	*k[b-]	*k[b-]	*k[b-]	*k[b-]
*F:ion	*F:ion	*F:ion	*F:ion	*F:ion
*M4/2	*M4/2	*M4/2	*M4/2	*M4/2
=40	=40	=40	=40	=40
0r	1F	1f	0r	1a
.	2c	2.e	.	2.g
.	2c	.	.	.
.	.	4c	.	4e
=41	=41	=41	=41	=41
0r	2B-	2d	1r	2f
.	2G	2e	.	2g
.	1F	1f	1cc	1a
=42	=42	=42	=42	=42
0r	1G	2d	2.b-	2g
.	.	2.g	.	2b-
.	.	.	4g	.
.	2d	.	2a	2a
.	.	4f	.	.
.	2d	[2f	2b-	4g
.	.	.	.	4f
=43	=43	=43	=43	=43
1r	0c	2f]	1cc	1g
.	.	2e	.	.
1F	.	2f	2a	1cc
.	.	2F	2a	.
=44	=44	=44	=44	=44
2.E	1C	2r	2.g	1cc
.	.	2c	.	.
4C	.	.	4e	.
2D	1r	2.B-	2f	2r
2E	.	.	2g	2g
.	.	4G	.	.
=45	=45	=45	=45	=45
2F	0r	2A	2c	2.f
2D	.	2B-	2d	.
.	.	.	.	4d
2C	.	2c	2g	2e
[2c	.	2A	2c	2f
=46	=46	=46	=46	=46
2c]	1r	2G	1d	1g
2B	.	1g	.	.
1c	2r	.	1c	2e
.	2c	2e	.	4g
.	.	.	.	4a
=47	=47	=47	=47	=47
1G	2.B-	1d	2r	4b-
.	.	.	.	4cc
.	.	.	2g	4dd
.	4G	.	.	4b-
1r	2A	1r	2.f	2cc
.	2B-	.	.	4b-
.	.	.	4d	4a
=48	=48	=48	=48	=48
0r	0c	0r	2e	2g
.	.	.	1f	2a
.	.	.	.	1g
.	.	.	2e	.
=49	=49	=49	=49	=49
1D	2A	2r	4f	1f
.	.	.	4g	.
.	2F	2f	4a	.
.	.	.	4b-	.
2.C	2G	2.e	1cc	1r
.	2A	.	.	.
4AA	.	4c	.	.
=50	=50	=50	=50	=50
2BB-	1G	2d	1r	2r
2C	.	2e	.	2cc
1D	1F	2f	2r	2.a
.	.	2F	2f	.
.	.	.	.	4f
=51	=51	=51	=51	=51
1C	2r	1c	2.e	2g
.	2c	.	.	2a
.	.	.	4c	.
1G	2.B-	1r	2d	1b-
.	.	.	2e	.
.	4G	.	.	.
=52	=52	=52	=52	=52
2F	2A	2r	1f	2.a
2D	2A	2d	.	.
.	.	.	.	4b-
2E	2G	2c	2g	2cc
2F	2D	2A	2a	[2dd
=53	=53	=53	=53	=53
0G	2d	2B	[0g	2dd]
.	2e	2c	.	1cc
.	1d	2d	.	.
.	.	[2G	.	2b
=54	=54	=54	=54	=54
1C	2c	2G]	1g]	1cc
.	2e	2g	.	.
1r	2.d	2.f	2r	2r
.	.	.	2b-	2b-
.	4B-	4d	.	.
=55	=55	=55	=55	=55
0r	2c	2e	2.a	2cc
.	2d	2f	.	2a
.	.	.	4f	.
.	1c	2e	2g	2cc
.	.	[2f	2a	2cc
=56	=56	=56	=56	=56
1r	1c	2f]	1g	1cc
.	.	2e	.	.
1D	2r	2f	1f	2a
.	2A	2d	.	2f
=57	=57	=57	=57	=57
2.C	1c	2g	2r	2.e
.	.	2e	2cc	.
4AA	.	.	.	4c
2BB-	2F	2d	2b-	2d
2C	2E	[2c	2g	2e
=58	=58	=58	=58	=58
1D	1F	2c]	2f	4d
.	.	.	.	4e
.	.	2B	2f	1f
1C	1G	1c	1cc	.
.	.	.	.	2e
=59	=59	=59	=59	=59
0F	0F	0c	0a	0f
==	==	==	==	==
*-	*-	*-	*-	*-
!!!CDT: 1525/^1526/-1594/2/2
!!!OCY: Italia
!!!AGN: Mass (Parody)
!!!AST: renaissance, vocal
!!!ASW: Madrigal 1550 (Rore)
!!!PWK: Masses, Book 12
!!!RNB: Cadence finals: C
!!!YOR: Le Opere Complete, v. 29, p. 88
!!!YOO: Rome, Italy: Fratelli Scalera
!!!END: 1992//
!!!EED: John Miller
!!!YEC: Copyright 2000, John Miller
!!!YEN: United States of America
!!!YEM: Rights to all derivative electronic formats reserved.
!!!YEM: Refer to licensing agreement for further details.
!!!YEM: This file must be accompanied by the licensing agreement.
!!!YEM: A copy of the licensing agreement may be found at http://www.music-cog.ohio-state.edu/HumdrumDatabases/Palestrina/license.txt
!!!EMD: converted to Humdrum by Bret Aarden
